svg/coreos.svg

<?xml version="1.0" encoding="UTF-8" standalone="no"?>
<!-- Uploaded to: SVG Repo, www.svgrepo.com, Generator: SVG Repo Mixer Tools -->
<svg width="800px" height="800px" viewBox="0 0 256 256" version="1.1" xmlns="http://www.w3.org/2000/svg" xmlns:xlink="http://www.w3.org/1999/xlink" preserveAspectRatio="xMidYMid">
	<g>
		<path d="M128.008337,0 C57.4172995,0 0,57.4200708 0,127.999404 C0,198.583502 57.4172995,256 128.008337,256 C198.577937,256 256,198.583502 256,127.999404 C256,57.4200708 198.577937,0 128.008337,0 L128.008337,0 L128.008337,0 Z" fill="#53A3DA">
</path>
		<path d="M128.571589,11.2526185 C108.188298,11.2526185 90.9008904,43.8566842 84.6572324,89.1733279 C84.4579164,90.6310464 84.2644976,92.1064556 84.0934869,93.5912998 C83.2407924,100.723034 82.6628943,108.138999 82.3739452,115.773151 C82.2359573,119.266485 82.1675531,122.797561 82.1675531,126.373452 C82.1675531,129.945806 82.2359573,133.483957 82.3739452,136.970216 C82.6628943,144.603188 83.2407924,152.023871 84.0934869,159.155605 C93.6512133,160.392779 103.870574,161.2325 114.529845,161.631132 C119.137698,161.803322 123.813955,161.905928 128.572768,161.905928 C133.317429,161.905928 138.007839,161.802142 142.601539,161.631132 C153.273783,161.2325 163.486067,160.392779 173.052049,159.155605 C174.10406,159.021155 175.139558,158.873732 176.188031,158.721592 C215.996953,153.131312 243.690063,140.757217 243.690063,126.373452 C243.688885,62.790512 192.143914,11.2526185 128.571589,11.2526185 L128.571589,11.2526185 L128.571589,11.2526185 Z" fill="#F1606D">
</path>
		<path d="M176.186852,94.0217748 C175.032235,92.3376147 173.793881,90.7242176 172.474152,89.1745074 C161.91159,76.7237524 146.17743,68.8124458 128.572768,68.8124458 C122.86573,68.8124458 117.783765,77.5481416 114.529845,91.1134143 C113.23724,96.5220685 112.233585,102.693784 111.587282,109.391505 C111.077789,114.758881 110.802992,120.467098 110.802992,126.373452 C110.802992,132.279807 111.077789,137.989203 111.587282,143.351862 C116.958196,143.861356 122.658158,144.134973 128.572768,144.134973 C134.480302,144.134973 140.180264,143.861356 145.551178,143.351862 C157.357989,142.231447 167.550224,139.961133 174.770411,136.970216 C181.900966,134.020577 186.120802,130.347976 186.120802,126.373452 C186.119622,114.381478 182.457635,103.243377 176.186852,94.0217748 L176.186852,94.0217748 L176.186852,94.0217748 Z" fill="#FFFFFF">
</path>
	</g>
</svg>

<svg xmlns="http://www.w3.org/2000/svg" width="800" height="800" preserveAspectRatio="xMidYMid" viewBox="0 0 256 256"><path fill="#53A3DA" d="M128.008 0C57.418 0 0 57.42 0 128c0 70.584 57.417 128 128.008 128C198.578 256 256 198.584 256 128 256 57.42 198.578 0 128.008 0Z"/><path fill="#F1606D" d="M128.572 11.253c-20.384 0-37.671 32.604-43.915 77.92-.2 1.458-.393 2.933-.564 4.418a274.635 274.635 0 0 0-1.72 22.182 268.485 268.485 0 0 0-.205 10.6c0 3.573.068 7.111.206 10.597.289 7.633.867 15.054 1.72 22.186 9.557 1.237 19.777 2.076 30.436 2.475 4.608.172 9.284.275 14.043.275 4.744 0 9.435-.104 14.029-.275 10.672-.399 20.884-1.238 30.45-2.475 1.052-.135 2.088-.282 3.136-.434 39.809-5.59 67.502-17.965 67.502-32.349-.001-63.582-51.546-115.12-115.118-115.12Z"/><path fill="#FFF" d="M176.187 94.022a58.427 58.427 0 0 0-3.713-4.847c-10.562-12.451-26.297-20.363-43.901-20.363-5.707 0-10.79 8.736-14.043 22.301-1.293 5.41-2.296 11.58-2.943 18.279a180.47 180.47 0 0 0-.784 16.981c0 5.907.275 11.616.784 16.979 5.371.51 11.071.783 16.986.783 5.907 0 11.607-.274 16.978-.783 11.807-1.12 22-3.39 29.22-6.382 7.13-2.95 11.35-6.622 11.35-10.597-.001-11.992-3.663-23.13-9.934-32.351Z"/></svg>
